X: 1
T: Minstrel Boy (To The War Has Gone), The
M: 4/4
L: 1/8
R: strathspey
K: Gmaj
D| G3 A cBAG| B2 d2 g2 fg| e2 d2 Bc dB| A4 G2 z D| 
G3 A cBAG| B2 d2 g2 fg| e2 d2 Bc dB| A4 G2 z G|
g2 f2 e2 fg| f2 e2 d2 z e| e2 B2 B2 e2| e2 f2 g2 z g|
G3 A cBAG|B2 d2 g2 fg| e2 d2 Bc dB| A4 G2 z2||
